lib/brands/icons/javascript.svg

<svg xmlns="http://www.w3.org/2000/svg" fill="none" aria-hidden="true" viewBox="0 0 48 48"><g id="javascript-Icon"><g id="Group"><rect id="bg" width="36" height="36" x="6" y="6" fill="#FFCA28"/><g id="js"><path fill="#3E3E3E" d="M27.8571 35.9413L30.5077 34.1874C30.7154 34.84 32.0308 36.3899 33.6923 36.3899C35.3538 36.3899 36.1253 35.4824 36.1253 34.8808C36.1253 33.2413 34.4287 32.6632 33.6138 32.3856C33.4809 32.3403 33.3715 32.303 33.2967 32.2704C33.2584 32.2537 33.2003 32.2316 33.1258 32.2031C32.2195 31.8568 28.8758 30.5793 28.8758 26.8763C28.8758 22.7976 32.8121 22.3286 33.7022 22.3286C34.2845 22.3286 37.0846 22.3999 38.4791 25.0205L35.9077 26.8152C35.344 25.6731 34.4073 25.2958 33.8308 25.2958C32.4066 25.2958 32.1099 26.3399 32.1099 26.8152C32.1099 28.1487 33.6572 28.7464 34.9637 29.2511C35.3055 29.3832 35.6309 29.5088 35.9077 29.6397C37.3319 30.3127 39.4286 31.4139 39.4286 34.8808C39.4286 36.6173 37.9721 39.4286 34.3055 39.4286C29.3802 39.4286 28.0747 36.4715 27.8571 35.9413Z"/><path fill="#3E3E3E" d="M15 36.2896L17.7626 34.5366C17.9791 35.1889 18.8202 36.3915 20.0407 36.3915C21.2612 36.3915 21.8858 35.1379 21.8858 34.5366V22.7143H25.2834V34.5366C25.3384 36.1673 24.434 39.4286 20.4427 39.4286C16.773 39.4286 15.2474 37.2476 15 36.2896Z"/></g></g></g></svg>

<svg xmlns="http://www.w3.org/2000/svg" fill="none" aria-hidden="true" viewBox="0 0 48 48"><path fill="#FFCA28" d="M6 6h36v36H6z"/><path fill="#3E3E3E" d="m27.857 35.941 2.65-1.754c.208.653 1.524 2.203 3.185 2.203 1.662 0 2.433-.908 2.433-1.51 0-1.639-1.696-2.217-2.511-2.494a4.72 4.72 0 0 1-.317-.116l-.171-.067c-.907-.346-4.25-1.624-4.25-5.327 0-4.078 3.936-4.547 4.826-4.547.583 0 3.383.07 4.777 2.691l-2.571 1.795c-.564-1.142-1.5-1.52-2.077-1.52-1.424 0-1.721 1.045-1.721 1.52 0 1.334 1.547 1.931 2.854 2.436.342.132.667.258.944.389 1.424.673 3.52 1.774 3.52 5.24 0 1.737-1.456 4.549-5.122 4.549-4.926 0-6.231-2.958-6.449-3.488ZM15 36.29l2.763-1.753c.216.652 1.057 1.855 2.278 1.855 1.22 0 1.845-1.254 1.845-1.855V22.714h3.397v11.823c.055 1.63-.849 4.892-4.84 4.892-3.67 0-5.196-2.181-5.443-3.14Z"/></svg>
